client/src/fastlane.svg

<?xml version="1.0" encoding="UTF-8"?>
<svg width="328px" height="89px" viewBox="0 0 328 89" version="1.1" xmlns="http://www.w3.org/2000/svg" xmlns:xlink="http://www.w3.org/1999/xlink">
    <!-- Generator: Sketch 52.6 (67491) - http://www.bohemiancoding.com/sketch -->
    <title>Logo</title>
    <desc>Created with Sketch.</desc>
    <g id="Page-1" stroke="none" stroke-width="1" fill="none" fill-rule="evenodd">
        <g id="Logo">
            <path d="M92.318,65.848 L92.318,34.102 L86,34.102 L86,28.408 L92.318,28.408 L92.318,26.848 C92.318,21.1279714 93.6569866,16.8900138 96.335,14.134 C99.0130134,11.3779862 102.561978,10 106.982,10 C108.178006,10 109.321995,10.0649994 110.414,10.195 C111.506005,10.3250006 112.493996,10.5719982 113.378,10.936 L112.754,16.318 C111.245992,15.9019979 109.608009,15.694 107.84,15.694 C104.875985,15.694 102.718007,16.5779912 101.366,18.346 C100.013993,20.1140088 99.338,22.7919821 99.338,26.38 L99.338,28.408 L110.258,28.408 L110.258,34.102 L99.338,34.102 L99.338,65.848 L92.318,65.848 Z M133.792,61.168 C133.219997,61.8440034 132.518004,62.5069967 131.686,63.157 C130.853996,63.8070032 129.905005,64.3919974 128.839,64.912 C127.772995,65.4320026 126.603006,65.8479984 125.329,66.16 C124.054994,66.4720016 122.716007,66.628 121.312,66.628 C119.751992,66.628 118.322006,66.3810025 117.022,65.887 C115.721993,65.3929975 114.604005,64.7040044 113.668,63.82 C112.731995,62.9359956 111.991003,61.8440065 111.445,60.544 C110.898997,59.2439935 110.626,57.8140078 110.626,56.254 C110.626,52.8219828 111.834988,50.2220088 114.253,48.454 C116.671012,46.6859912 119.90798,45.6720013 123.964,45.412 C125.628008,45.3079995 127.278992,45.2300003 128.917,45.178 C130.555008,45.1259997 132.127992,45.1 133.636,45.1 L133.636,43.462 C133.636,40.2899841 132.960007,37.807009 131.608,36.013 C130.255993,34.218991 128.020016,33.322 124.9,33.322 C123.079991,33.322 121.351008,33.5559977 119.713,34.024 C118.074992,34.4920023 116.502008,35.1419958 114.994,35.974 L113.356,30.826 C115.33201,29.629994 117.34699,28.7980023 119.401,28.33 C121.45501,27.8619977 123.703988,27.628 126.148,27.628 C130.568022,27.628 134.090987,28.9799865 136.717,31.684 C139.343013,34.3880135 140.656,38.2619748 140.656,43.306 L140.656,65.848 L133.792,65.848 L133.792,61.168 Z M123.34,61.48 C125.36801,61.48 127.265991,61.0250045 129.034,60.115 C130.802009,59.2049954 132.335993,58.048007 133.636,56.644 L133.636,49.702 C132.075992,49.8060005 130.620007,49.9099995 129.268,50.014 C127.915993,50.1180005 126.564007,50.2479992 125.212,50.404 C124.119995,50.5080005 123.093005,50.6899987 122.131,50.95 C121.168995,51.2100013 120.337003,51.5609978 119.635,52.003 C118.932996,52.4450022 118.387002,53.0169965 117.997,53.719 C117.606998,54.4210035 117.412,55.2659951 117.412,56.254 C117.412,58.0220088 117.931995,59.3349957 118.972,60.193 C120.012005,61.0510043 121.467991,61.48 123.34,61.48 Z M172.614,55.162 C172.614,56.9300088 172.237004,58.515993 171.483,59.92 C170.728996,61.324007 169.689007,62.5199951 168.363,63.508 C167.036993,64.4960049 165.464009,65.2629973 163.644,65.809 C161.823991,66.3550027 159.848011,66.628 157.716,66.628 C156.779995,66.628 155.792005,66.5760005 154.752,66.472 C153.711995,66.3679995 152.672005,66.212001 151.632,66.004 C150.591995,65.795999 149.591005,65.5490014 148.629,65.263 C147.666995,64.9769986 146.848003,64.6780016 146.172,64.366 L147.342,58.828 C148.694007,59.4000029 150.240991,59.9199977 151.983,60.388 C153.725009,60.8560023 155.661989,61.09 157.794,61.09 C160.030011,61.09 161.914992,60.687004 163.449,59.881 C164.983008,59.074996 165.75,57.7880088 165.75,56.02 C165.75,55.1879958 165.542002,54.4470032 165.126,53.797 C164.709998,53.1469967 164.164003,52.5750025 163.488,52.081 C162.811997,51.5869975 162.019004,51.1320021 161.109,50.716 C160.198995,50.2999979 159.250005,49.8840021 158.262,49.468 C156.909993,48.9479974 155.558007,48.3630032 154.206,47.713 C152.853993,47.0629967 151.619006,46.2830046 150.501,45.373 C149.382994,44.4629954 148.473003,43.410006 147.771,42.214 C147.068996,41.017994 146.718,39.5880083 146.718,37.924 C146.718,36.1039909 147.094996,34.5440065 147.849,33.244 C148.603004,31.9439935 149.590994,30.8780042 150.813,30.046 C152.035006,29.2139958 153.451992,28.603002 155.064,28.213 C156.676008,27.822998 158.339991,27.628 160.056,27.628 C162.03201,27.628 163.955991,27.8489978 165.828,28.291 C167.700009,28.7330022 169.389992,29.3439961 170.898,30.124 L169.728,35.428 C168.219992,34.6999964 166.647008,34.1410019 165.009,33.751 C163.370992,33.360998 161.720008,33.166 160.056,33.166 C158.235991,33.166 156.702006,33.4779969 155.454,34.102 C154.205994,34.7260031 153.582,35.8699917 153.582,37.534 C153.582,38.3140039 153.802998,38.9769973 154.245,39.523 C154.687002,40.0690027 155.258996,40.5629978 155.961,41.005 C156.663003,41.4470022 157.429996,41.8499982 158.262,42.214 C159.094004,42.5780018 159.873996,42.9419982 160.602,43.306 C161.278003,43.6180016 162.291993,44.0599971 163.644,44.632 C164.996007,45.2040029 166.334993,45.9449955 167.661,46.855 C168.987007,47.7650046 170.143995,48.8959932 171.132,50.248 C172.120005,51.6000068 172.614,53.2379904 172.614,55.162 Z M173.294,28.408 L180.002,28.408 L180.002,18.814 L187.022,18.814 L187.022,28.408 L199.346,28.408 L199.346,34.102 L187.022,34.102 L187.022,53.212 C187.022,54.3040055 187.099999,55.3309952 187.256,56.293 C187.412001,57.2550048 187.697998,58.0739966 188.114,58.75 C188.530002,59.4260034 189.101996,59.9589981 189.83,60.349 C190.558004,60.739002 191.519994,60.934 192.716,60.934 C194.900011,60.934 196.875991,60.5960034 198.644,59.92 L199.268,65.224 C198.435996,65.5880018 197.253008,65.9129986 195.719,66.199 C194.184992,66.4850014 192.690007,66.628 191.234,66.628 C189.20599,66.628 187.490007,66.3030033 186.086,65.653 C184.681993,65.0029967 183.525004,64.0930058 182.615,62.923 C181.704995,61.7529941 181.042002,60.3620081 180.626,58.75 C180.209998,57.1379919 180.002,55.3700096 180.002,53.446 L180.002,34.102 L173.294,34.102 L173.294,28.408 Z M211.18,56.176 C211.18,57.6840075 211.478997,58.840996 212.077,59.647 C212.675003,60.453004 213.701993,60.856 215.158,60.856 C216.302006,60.856 217.471994,60.7000016 218.668,60.388 L218.98,65.614 C217.263991,66.1860029 215.36601,66.472 213.286,66.472 C210.009984,66.472 207.670007,65.5100096 206.266,63.586 C204.861993,61.6619904 204.16,59.296014 204.16,56.488 L204.16,10.78 L211.18,10.78 L211.18,56.176 Z M243.918,61.168 C243.345997,61.8440034 242.644004,62.5069967 241.812,63.157 C240.979996,63.8070032 240.031005,64.3919974 238.965,64.912 C237.898995,65.4320026 236.729006,65.8479984 235.455,66.16 C234.180993,66.4720016 232.842007,66.628 231.438,66.628 C229.877992,66.628 228.448006,66.3810025 227.148,65.887 C225.847993,65.3929975 224.730005,64.7040044 223.794,63.82 C222.857995,62.9359956 222.117003,61.8440065 221.571,60.544 C221.024997,59.2439935 220.752,57.8140078 220.752,56.254 C220.752,52.8219828 221.960988,50.2220088 224.379,48.454 C226.797012,46.6859912 230.03398,45.6720013 234.09,45.412 C235.754008,45.3079995 237.404992,45.2300003 239.043,45.178 C240.681008,45.1259997 242.253992,45.1 243.762,45.1 L243.762,43.462 C243.762,40.2899841 243.086007,37.807009 241.734,36.013 C240.381993,34.218991 238.146015,33.322 235.026,33.322 C233.205991,33.322 231.477008,33.5559977 229.839,34.024 C228.200992,34.4920023 226.628007,35.1419958 225.12,35.974 L223.482,30.826 C225.45801,29.629994 227.47299,28.7980023 229.527,28.33 C231.58101,27.8619977 233.829988,27.628 236.274,27.628 C240.694022,27.628 244.216987,28.9799865 246.843,31.684 C249.469013,34.3880135 250.782,38.2619748 250.782,43.306 L250.782,65.848 L243.918,65.848 L243.918,61.168 Z M233.466,61.48 C235.49401,61.48 237.391991,61.0250045 239.16,60.115 C240.928009,59.2049954 242.461993,58.048007 243.762,56.644 L243.762,49.702 C242.201992,49.8060005 240.746007,49.9099995 239.394,50.014 C238.041993,50.1180005 236.690007,50.2479992 235.338,50.404 C234.245994,50.5080005 233.219005,50.6899987 232.257,50.95 C231.294995,51.2100013 230.463003,51.5609978 229.761,52.003 C229.058996,52.4450022 228.513002,53.0169965 228.123,53.719 C227.732998,54.4210035 227.538,55.2659951 227.538,56.254 C227.538,58.0220088 228.057995,59.3349957 229.098,60.193 C230.138005,61.0510043 231.59399,61.48 233.466,61.48 Z M258.716,65.848 L258.716,28.408 L265.424,28.408 L265.424,33.868 C266.828007,31.8919901 268.51799,30.3580055 270.494,29.266 C272.47001,28.1739945 274.757987,27.628 277.358,27.628 C279.698012,27.628 281.699992,28.1219951 283.364,29.11 C285.028008,30.0980049 286.405994,31.4369916 287.498,33.127 C288.590005,34.8170085 289.382997,36.7799888 289.877,39.016 C290.371002,41.2520112 290.618,43.6179875 290.618,46.114 L290.618,65.848 L283.598,65.848 L283.598,46.348 C283.598,44.4239904 283.442001,42.6690079 283.13,41.083 C282.817998,39.4969921 282.324003,38.1320057 281.648,36.988 C280.971996,35.8439943 280.088005,34.9470033 278.996,34.297 C277.903994,33.6469967 276.578008,33.322 275.018,33.322 C272.937989,33.322 271.105008,33.8679945 269.519,34.96 C267.932992,36.0520055 266.672005,37.195994 265.736,38.392 L265.736,65.848 L258.716,65.848 Z M313.138,27.628 C315.530012,27.628 317.622991,28.0179961 319.417,28.798 C321.211009,29.5780039 322.718994,30.6439932 323.941,31.996 C325.163006,33.3480068 326.072997,34.9469908 326.671,36.793 C327.269003,38.6390092 327.568,40.6279893 327.568,42.76 C327.568,44.8920107 327.308002,46.9979896 326.788,49.078 L303.154,49.078 C303.206,50.8980091 303.465997,52.5359927 303.934,53.992 C304.402002,55.4480073 305.116995,56.7089947 306.079,57.775 C307.041005,58.8410053 308.288992,59.6599971 309.823,60.232 C311.357007,60.8040029 313.215989,61.09 315.4,61.09 C317.42801,61.09 319.338991,60.8820021 321.133,60.466 C322.927009,60.0499979 324.577992,59.5300031 326.086,58.906 L327.022,64.132 C325.357991,64.9120039 323.421011,65.5229978 321.211,65.965 C319.000989,66.4070022 316.726011,66.628 314.386,66.628 C311.265984,66.628 308.549011,66.1210051 306.235,65.107 C303.920988,64.0929949 302.010007,62.7150087 300.502,60.973 C298.993992,59.2309913 297.863004,57.1900117 297.109,54.85 C296.354996,52.5099883 295.978,49.9880135 295.978,47.284 C295.978,44.5799865 296.367996,42.032012 297.148,39.64 C297.928004,37.247988 299.058992,35.155009 300.541,33.361 C302.023007,31.566991 303.829989,30.1630051 305.962,29.149 C308.09401,28.1349949 310.485987,27.628 313.138,27.628 Z M312.904,32.854 C311.395992,32.854 310.070006,33.1399971 308.926,33.712 C307.781994,34.2840029 306.794004,35.0639951 305.962,36.052 C305.129996,37.0400049 304.480002,38.1969934 304.012,39.523 C303.543997,40.8490066 303.258,42.2399927 303.154,43.696 L320.782,43.696 C320.938001,42.2399927 320.912001,40.8490066 320.704,39.523 C320.495999,38.1969934 320.080003,37.0400049 319.456,36.052 C318.831997,35.0639951 317.974005,34.2840029 316.882,33.712 C315.789994,33.1399971 314.464008,32.854 312.904,32.854 Z" id="fastlane" fill="#358189"></path>
            <g id="RoadThunder">
                <path d="M71.5440034,29.2059062 C70.8122661,27.8352715 69.3166783,26.9696074 67.6802004,26.9696074 L45.8704574,26.9696074 L57.1442604,5.85453125 C57.8141842,4.60070898 57.7421614,3.11117578 56.9552932,1.91854102 C56.1678682,0.726080078 54.7773446,0 53.2800861,0 L27.3598433,0 C25.7233654,0 24.2277776,0.865664063 23.4960403,2.23629883 L0.455968812,45.3877402 C-0.213398159,46.6415625 -0.14193219,48.1310957 0.644935972,49.3237305 C1.43236101,50.5165391 2.82269895,51.2422715 4.31977178,51.2422715 L27.7760165,51.2422715 L20.256126,84.1065645 C19.8306714,85.9642656 20.8434463,87.8485625 22.6896814,88.6358301 C23.2666067,88.8814492 23.8756453,89 24.4781869,89 C25.8050408,89 27.0990389,88.426541 27.9358404,87.3814863 L71.1359977,33.4422715 C72.1175874,32.2166094 72.2757407,30.5761934 71.5440034,29.2059062 Z" id="Path" fill="#358189"></path>
                <path d="M20.4179104,42 C21.1343284,40.3333333 21.8507463,38.6666667 22.5671642,37" id="Path-2" stroke="#FFFFFF" stroke-width="4" stroke-linecap="round"></path>
                <path d="M26.8656716,27 C27.5820896,25.3333333 28.2985075,23.6666667 29.0149254,22" id="Path-2" stroke="#FFFFFF" stroke-width="4" stroke-linecap="round"></path>
                <path d="M44.0597015,43 C44.7761194,41.3333333 45.4925373,39.6666667 46.2089552,38" id="Path-2" stroke="#FFFFFF" stroke-width="4" stroke-linecap="round"></path>
                <path d="M37.6119403,58 C38.3283582,56.3333333 39.0447761,54.6666667 39.761194,53" id="Path-2" stroke="#FFFFFF" stroke-width="4" stroke-linecap="round"></path>
                <path d="M33.3134328,12 C34.0298507,10.3333333 34.7462687,8.66666667 35.4626866,7" id="Path-2" stroke="#FFFFFF" stroke-width="4" stroke-linecap="round"></path>
            </g>
        </g>
    </g>
</svg>

<svg viewBox="0 0 328 89" xmlns="http://www.w3.org/2000/svg"><g fill="none" fill-rule="evenodd"><path d="M92.318 65.848V34.102H86v-5.694h6.318v-1.56c0-5.72 1.339-9.958 4.017-12.714C99.013 11.378 102.562 10 106.982 10c1.196 0 2.34.065 3.432.195s2.08.377 2.964.741l-.624 5.382c-1.508-.416-3.146-.624-4.914-.624-2.964 0-5.122.884-6.474 2.652-1.352 1.768-2.028 4.446-2.028 8.034v2.028h10.92v5.694h-10.92v31.746h-7.02zm41.474-4.68c-.572.676-1.274 1.339-2.106 1.989a16 16 0 0 1-2.847 1.755c-1.066.52-2.236.936-3.51 1.248a16.833 16.833 0 0 1-4.017.468c-1.56 0-2.99-.247-4.29-.741-1.3-.494-2.418-1.183-3.354-2.067-.936-.884-1.677-1.976-2.223-3.276-.546-1.3-.819-2.73-.819-4.29 0-3.432 1.209-6.032 3.627-7.8 2.418-1.768 5.655-2.782 9.711-3.042 1.664-.104 3.315-.182 4.953-.234 1.638-.052 3.211-.078 4.719-.078v-1.638c0-3.172-.676-5.655-2.028-7.449-1.352-1.794-3.588-2.691-6.708-2.691-1.82 0-3.549.234-5.187.702a22.583 22.583 0 0 0-4.719 1.95l-1.638-5.148c1.976-1.196 3.991-2.028 6.045-2.496 2.054-.468 4.303-.702 6.747-.702 4.42 0 7.943 1.352 10.569 4.056 2.626 2.704 3.939 6.578 3.939 11.622v22.542h-6.864v-4.68zm-10.452.312c2.028 0 3.926-.455 5.694-1.365a16.504 16.504 0 0 0 4.602-3.471v-6.942a430.8 430.8 0 0 0-4.368.312 106.93 106.93 0 0 0-4.056.39 18.535 18.535 0 0 0-3.081.546c-.962.26-1.794.611-2.496 1.053a4.705 4.705 0 0 0-1.638 1.716c-.39.702-.585 1.547-.585 2.535 0 1.768.52 3.081 1.56 3.939 1.04.858 2.496 1.287 4.368 1.287zm49.274-6.318c0 1.768-.377 3.354-1.131 4.758s-1.794 2.6-3.12 3.588-2.899 1.755-4.719 2.301c-1.82.546-3.796.819-5.928.819-.936 0-1.924-.052-2.964-.156a33.788 33.788 0 0 1-6.123-1.209c-.962-.286-1.781-.585-2.457-.897l1.17-5.538c1.352.572 2.899 1.092 4.641 1.56 1.742.468 3.679.702 5.811.702 2.236 0 4.121-.403 5.655-1.209 1.534-.806 2.301-2.093 2.301-3.861 0-.832-.208-1.573-.624-2.223a6.395 6.395 0 0 0-1.638-1.716 13.627 13.627 0 0 0-2.379-1.365c-.91-.416-1.859-.832-2.847-1.248a54.585 54.585 0 0 1-4.056-1.755 18.628 18.628 0 0 1-3.705-2.34 11.674 11.674 0 0 1-2.73-3.159c-.702-1.196-1.053-2.626-1.053-4.29 0-1.82.377-3.38 1.131-4.68a9.706 9.706 0 0 1 2.964-3.198c1.222-.832 2.639-1.443 4.251-1.833a21.154 21.154 0 0 1 4.992-.585c1.976 0 3.9.221 5.772.663 1.872.442 3.562 1.053 5.07 1.833l-1.17 5.304a23.162 23.162 0 0 0-4.719-1.677 21.314 21.314 0 0 0-4.953-.585c-1.82 0-3.354.312-4.602.936-1.248.624-1.872 1.768-1.872 3.432 0 .78.221 1.443.663 1.989.442.546 1.014 1.04 1.716 1.482.702.442 1.469.845 2.301 1.209.832.364 1.612.728 2.34 1.092.676.312 1.69.754 3.042 1.326a22.833 22.833 0 0 1 4.017 2.223 14.32 14.32 0 0 1 3.471 3.393c.988 1.352 1.482 2.99 1.482 4.914zm.68-26.754h6.708v-9.594h7.02v9.594h12.324v5.694h-12.324v19.11c0 1.092.078 2.119.234 3.081.156.962.442 1.781.858 2.457a4.425 4.425 0 0 0 1.716 1.599c.728.39 1.69.585 2.886.585 2.184 0 4.16-.338 5.928-1.014l.624 5.304c-.832.364-2.015.689-3.549.975a24.448 24.448 0 0 1-4.485.429c-2.028 0-3.744-.325-5.148-.975-1.404-.65-2.561-1.56-3.471-2.73-.91-1.17-1.573-2.561-1.989-4.173-.416-1.612-.624-3.38-.624-5.304V34.102h-6.708v-5.694zm37.886 27.768c0 1.508.299 2.665.897 3.471.598.806 1.625 1.209 3.081 1.209 1.144 0 2.314-.156 3.51-.468l.312 5.226c-1.716.572-3.614.858-5.694.858-3.276 0-5.616-.962-7.02-2.886-1.404-1.924-2.106-4.29-2.106-7.098V10.78h7.02v45.396zm32.738 4.992c-.572.676-1.274 1.339-2.106 1.989a16 16 0 0 1-2.847 1.755c-1.066.52-2.236.936-3.51 1.248a16.833 16.833 0 0 1-4.017.468c-1.56 0-2.99-.247-4.29-.741-1.3-.494-2.418-1.183-3.354-2.067-.936-.884-1.677-1.976-2.223-3.276-.546-1.3-.819-2.73-.819-4.29 0-3.432 1.209-6.032 3.627-7.8 2.418-1.768 5.655-2.782 9.711-3.042 1.664-.104 3.315-.182 4.953-.234 1.638-.052 3.211-.078 4.719-.078v-1.638c0-3.172-.676-5.655-2.028-7.449-1.352-1.794-3.588-2.691-6.708-2.691-1.82 0-3.549.234-5.187.702a22.583 22.583 0 0 0-4.719 1.95l-1.638-5.148c1.976-1.196 3.991-2.028 6.045-2.496 2.054-.468 4.303-.702 6.747-.702 4.42 0 7.943 1.352 10.569 4.056 2.626 2.704 3.939 6.578 3.939 11.622v22.542h-6.864v-4.68zm-10.452.312c2.028 0 3.926-.455 5.694-1.365a16.504 16.504 0 0 0 4.602-3.471v-6.942a430.8 430.8 0 0 0-4.368.312 106.93 106.93 0 0 0-4.056.39 18.535 18.535 0 0 0-3.081.546c-.962.26-1.794.611-2.496 1.053a4.705 4.705 0 0 0-1.638 1.716c-.39.702-.585 1.547-.585 2.535 0 1.768.52 3.081 1.56 3.939 1.04.858 2.496 1.287 4.368 1.287zm25.25 4.368v-37.44h6.708v5.46c1.404-1.976 3.094-3.51 5.07-4.602 1.976-1.092 4.264-1.638 6.864-1.638 2.34 0 4.342.494 6.006 1.482 1.664.988 3.042 2.327 4.134 4.017 1.092 1.69 1.885 3.653 2.379 5.889s.741 4.602.741 7.098v19.734h-7.02v-19.5c0-1.924-.156-3.679-.468-5.265-.312-1.586-.806-2.951-1.482-4.095-.676-1.144-1.56-2.041-2.652-2.691-1.092-.65-2.418-.975-3.978-.975-2.08 0-3.913.546-5.499 1.638-1.586 1.092-2.847 2.236-3.783 3.432v27.456h-7.02zm54.422-38.22c2.392 0 4.485.39 6.279 1.17 1.794.78 3.302 1.846 4.524 3.198 1.222 1.352 2.132 2.951 2.73 4.797.598 1.846.897 3.835.897 5.967 0 2.132-.26 4.238-.78 6.318h-23.634c.052 1.82.312 3.458.78 4.914.468 1.456 1.183 2.717 2.145 3.783.962 1.066 2.21 1.885 3.744 2.457 1.534.572 3.393.858 5.577.858 2.028 0 3.939-.208 5.733-.624a31.64 31.64 0 0 0 4.953-1.56l.936 5.226c-1.664.78-3.601 1.391-5.811 1.833-2.21.442-4.485.663-6.825.663-3.12 0-5.837-.507-8.151-1.521-2.314-1.014-4.225-2.392-5.733-4.134-1.508-1.742-2.639-3.783-3.393-6.123-.754-2.34-1.131-4.862-1.131-7.566 0-2.704.39-5.252 1.17-7.644.78-2.392 1.911-4.485 3.393-6.279a15.671 15.671 0 0 1 5.421-4.212c2.132-1.014 4.524-1.521 7.176-1.521zm-.234 5.226c-1.508 0-2.834.286-3.978.858a9.242 9.242 0 0 0-2.964 2.34c-.832.988-1.482 2.145-1.95 3.471a15.878 15.878 0 0 0-.858 4.173h17.628a15.91 15.91 0 0 0-.078-4.173c-.208-1.326-.624-2.483-1.248-3.471s-1.482-1.768-2.574-2.34c-1.092-.572-2.418-.858-3.978-.858zM71.544 29.206c-.732-1.37-2.227-2.236-3.864-2.236H45.87L57.144 5.855a3.823 3.823 0 0 0-.189-3.936C56.168.726 54.777 0 53.28 0H27.36c-1.637 0-3.132.866-3.864 2.236L.456 45.388a3.825 3.825 0 0 0 .189 3.936c.787 1.193 2.178 1.918 3.675 1.918h23.456l-7.52 32.865c-.425 1.857.587 3.742 2.434 4.529a4.564 4.564 0 0 0 1.788.364c1.327 0 2.621-.573 3.458-1.619l43.2-53.939c.982-1.225 1.14-2.866.408-4.236z" fill="#358189"/><path d="M20.418 42l2.15-5M26.866 27l2.149-5M44.06 43l2.149-5M37.612 58l2.15-5M33.313 12l2.15-5" stroke="#FFF" stroke-width="4" stroke-linecap="round"/></g></svg>
